X: 32697
T: Polka à Jolive
R: reel
M: 4/4
K: Ddorian
|:A2d2 d2cB|ABAF D2ED|CDEF G2B2|A2G2 F2D2|
A2d2 d2cB|ABAF D2ED|CDEF G2B2|A2F2 D4:|
K: Amin
|:ABcB ABce|b2a2 aece|a2g2 gece|g2^f2 e4|
ABcB ABce|b2a2 aece|g2g2 efed|c2B2 A4:|

